!!!!SEGMENT:22Musashimeibutu_c.krn
!!!OTL: むさし名物
!!!OPR:Eiga Banso Kyokusyu,jidai-geki,zenpen
!!!YOY:1929
!!!ONB:Restaurant,Lively
**kern
*clefG2
*C:
*M2/4
=1
4cc#X
4b
=2
2cc#X
=3
4cc#X
4r
=4
2gg
=5
2gg
=6
4ff#
8ff#L
8ff#J
=7
4ff#
4ff#
=8
4ee
4ff#
=9
4B
4gg
=10
4ff#
4ee
=11
4cc
4b
=12
4cc
4r
=13
4cc
4ee
=14
2ff#
=15
4bb
4gg
=16
4ff#
4ee
=17
4cc
4ee
=18
2b
=19
4b
4r
=20
4B
4cc
=21
4B
4b
=22
4B
4b
=23
8r
8ee
4cc
=24
4.b
8g
=25
4f#
4r
=26
4ee
4ff#
=27
4gg
4gg
=28
4r
4bb
=29
4ccc#X
4bb
=30
4gg
4ff#
=31
4ee
4ee
=32
4ee
4cc
=33
4ee
4ee
=34
4ff#
4ee
=35
4f#
4a
=36
4.b
8g
=37
4f#
4e
=38
4f#
4a
=39
4.b
8g
=40
4f#
4e
=41
2f#
=42
4f#
4r
=43
4cc
4cc
=44
4ee
8ff#L
8eeJ
=45
4cc
4ee
=46
8ccL
8eeJ
8ccL
8bJ
=47
4cc
4b
=48
8ccL
8b
8cc
8bJ
=49
4a
4a
=50
2r
=51
4b
4f#
=52
4b
4f#
=53
4e
8f#L
8eJ
=54
4c
4B
=55
4e
8f#L
8eJ
=56
4f#
4a
=57
2b
=58
4b
4r
=59
4aa
8bbL
8aaJ
=60
4bb
4aa
=61
4f#
8ff#L
8ff#J
=62
4ff#
4gg
=63
4ff#
4ee
=64
4cc
4ee
=65
4b
4r
=66
4a
4a
=67
2b
=68
4a
4a
=69
2b
=70
4a
4a
=71
2b
=72
4a
4a
=73
2b
=74
4a
4a
=75
2b
=76
4cc#X
4b
=77
4cc#X
4b
=78
4cc#X
4dd
=79
2ff#
=80
4dd
4cc#X
=81
4b
4b
=82
4r
4dd
=83
4cc#X
4b
=84
2g
=85
4f#
4r
=86
4B
4a
=87
2b
=88
4cc
4b
=89
4B
4a
=90
4.b
8g
=91
4.f#
8r
==
*-
!!!ENC: Yukiko Yoden
!!!END: 2023/06/11
